img/low_density.svg

<svg version="1.1" xmlns="http://www.w3.org/2000/svg" xmlns:xlink="http://www.w3.org/1999/xlink" width="519" height="163"><defs/><g><rect fill="black" stroke="none" x="0" y="0" width="519" height="163"/><g/><rect fill="rgb(0,255,0)" stroke="none" x="133.53511268220004" y="78.75757000250002" width="5" height="5"/><path fill="none" stroke="rgb(128,128,128)" paint-order="fill stroke markers" d=" M 205.68532468220002 44.02525900250002 L 206.21676568220002 115.23835300250002" stroke-miterlimit="10" stroke-width="4" stroke-opacity="0.7142857142857143" stroke-dasharray=""/><path fill="none" stroke="rgb(255,255,255)" paint-order="fill stroke markers" d=" M 203.95110087156473 79.64673096004206 L 207.95098949283528 79.61688104495796" stroke-miterlimit="10" stroke-dasharray=""/><path fill="rgb(255,0,0)" stroke="none" paint-order="stroke fill markers" d=" M 205.6480122883449 39.02539822591186 L 210.7224978526433 48.98780738523305 L 200.722776299467 49.062432172943325"/><path fill="rgb(255,0,0)" stroke="none" paint-order="stroke fill markers" d=" M 206.25407807605515 120.23821377908818 L 211.17931406493307 110.20117983205672 L 201.1795925117567 110.27580461976699"/><path fill="none" stroke="rgb(168,168,168)" paint-order="fill stroke markers" d=" M 377.74644468220004 34.207793002500026 L 417.07307868220005 130.3986140025" stroke-miterlimit="10" stroke-dasharray=""/><path fill="none" stroke="rgb(255,255,128)" paint-order="fill stroke markers" d=" M 135.53511268220004 80.75757000250002 L 135.53511268220004 2623.4248373752926" stroke-miterlimit="10" stroke-dasharray=""/><path fill="none" stroke="rgb(255,255,128)" paint-order="fill stroke markers" d=" M 135.53511268220004 80.75757000250002 L 436.2644329923171 2605.578099956033" stroke-miterlimit="10" stroke-dasharray=""/><path fill="none" stroke="rgb(255,255,128)" paint-order="fill stroke markers" d=" M 135.53511268220004 80.75757000250002 L 732.772172852164 2552.2884167710695" stroke-miterlimit="10" stroke-dasharray=""/><path fill="none" stroke="rgb(255,255,128)" paint-order="fill stroke markers" d=" M 135.53511268220004 80.75757000250002 L 1020.8960135469432 2464.3038581599158" stroke-miterlimit="10" stroke-dasharray=""/><path fill="none" stroke="rgb(255,255,128)" paint-order="fill stroke markers" d=" M 135.53511268220004 80.75757000250002 L 1296.5913279285962 2342.859534460941" stroke-miterlimit="10" stroke-dasharray=""/><path fill="none" stroke="rgb(255,255,128)" paint-order="fill stroke markers" d=" M 135.53511268220004 80.75757000250002 L 1555.9879581148118 2189.660257769629" stroke-miterlimit="10" stroke-dasharray=""/><path fill="none" stroke="rgb(255,255,128)" paint-order="fill stroke markers" d=" M 135.53511268220004 80.75757000250002 L 1795.444544022213 2006.8566101137553" stroke-miterlimit="10" stroke-dasharray=""/><path fill="none" stroke="rgb(255,255,128)" paint-order="fill stroke markers" d=" M 135.53511268220004 80.75757000250002 L 2011.5996400799268 1797.014753995904" stroke-miterlimit="10" stroke-dasharray=""/><path fill="none" stroke="rgb(255,255,128)" paint-order="fill stroke markers" d=" M 135.53511268220004 80.75757000250002 L 2201.4189025571504 1563.0804090969182" stroke-miterlimit="10" stroke-dasharray=""/><path fill="none" stroke="rgb(255,255,128)" paint-order="fill stroke markers" d=" M 135.53511268220004 80.75757000250002 L 2362.2376850976443 1308.337500828785" stroke-miterlimit="10" stroke-dasharray=""/><path fill="none" stroke="rgb(255,255,128)" paint-order="fill stroke markers" d=" M 135.53511268220004 80.75757000250002 L 206.17323706122352 109.40551779164879" stroke-miterlimit="10" stroke-dasharray=""/><path fill="none" stroke="rgb(255,255,128)" paint-order="fill stroke markers" d=" M 135.53511268220004 80.75757000250002 L 206.1033479461876 100.0403763768329" stroke-miterlimit="10" stroke-dasharray=""/><path fill="none" stroke="rgb(255,255,128)" paint-order="fill stroke markers" d=" M 135.53511268220004 80.75757000250002 L 206.03799012309142 91.28242808194734" stroke-miterlimit="10" stroke-dasharray=""/><path fill="none" stroke="rgb(255,255,128)" paint-order="fill stroke markers" d=" M 135.53511268220004 80.75757000250002 L 205.97503063204698 82.8458562819955" stroke-miterlimit="10" stroke-dasharray=""/><path fill="none" stroke="rgb(255,255,128)" paint-order="fill stroke markers" d=" M 135.53511268220004 80.75757000250002 L 205.91262537915884 74.48355239498792" stroke-miterlimit="10" stroke-dasharray=""/><path fill="none" stroke="rgb(255,255,128)" paint-order="fill stroke markers" d=" M 135.53511268220004 80.75757000250002 L 205.84899467768358 65.95703839729772" stroke-miterlimit="10" stroke-dasharray=""/><path fill="none" stroke="rgb(255,255,128)" paint-order="fill stroke markers" d=" M 135.53511268220004 80.75757000250002 L 205.78221525424425 57.008595656431794" stroke-miterlimit="10" stroke-dasharray=""/><path fill="none" stroke="rgb(255,255,128)" paint-order="fill stroke markers" d=" M 135.53511268220004 80.75757000250002 L 205.70997511815833 47.328417420916594" stroke-miterlimit="10" stroke-dasharray=""/><path fill="none" stroke="rgb(255,255,128)" paint-order="fill stroke markers" d=" M 135.53511268220004 80.75757000250002 L 2285.6043922075487 -1276.5776597069382" stroke-miterlimit="10" stroke-dasharray=""/><path fill="none" stroke="rgb(255,255,128)" paint-order="fill stroke markers" d=" M 135.53511268220004 80.75757000250002 L 2109.9769207492664 -1521.3461654422056" stroke-miterlimit="10" stroke-dasharray=""/><path fill="none" stroke="rgb(255,255,128)" paint-order="fill stroke markers" d=" M 135.53511268220004 80.75757000250002 L 1906.6326143355045 -1743.6246465865695" stroke-miterlimit="10" stroke-dasharray=""/><path fill="none" stroke="rgb(255,255,128)" paint-order="fill stroke markers" d=" M 135.53511268220004 80.75757000250002 L 1678.4259812921835 -1940.292800505112" stroke-miterlimit="10" stroke-dasharray=""/><path fill="none" stroke="rgb(255,255,128)" paint-order="fill stroke markers" d=" M 135.53511268220004 80.75757000250002 L 1428.560542512033 -2108.5898374188073" stroke-miterlimit="10" stroke-dasharray=""/><path fill="none" stroke="rgb(255,255,128)" paint-order="fill stroke markers" d=" M 135.53511268220004 80.75757000250002 L 1160.5438610438048 -2246.1532358409904" stroke-miterlimit="10" stroke-dasharray=""/><path fill="none" stroke="rgb(255,255,128)" paint-order="fill stroke markers" d=" M 135.53511268220004 80.75757000250002 L 878.1383035954366 -2351.0519072005363" stroke-miterlimit="10" stroke-dasharray=""/><path fill="none" stroke="rgb(255,255,128)" paint-order="fill stroke markers" d=" M 135.53511268220004 80.75757000250002 L 585.3082251529702 -2421.813304092254" stroke-miterlimit="10" stroke-dasharray=""/><path fill="none" stroke="rgb(255,255,128)" paint-order="fill stroke markers" d=" M 135.53511268220004 80.75757000250002 L 286.1643181261969 -2457.444091614704" stroke-miterlimit="10" stroke-dasharray=""/><path fill="none" stroke="rgb(255,255,128)" paint-order="fill stroke markers" d=" M 135.53511268220004 80.75757000250002 L -15.09409276172471 -2457.444091614708" stroke-miterlimit="10" stroke-dasharray=""/><path fill="none" stroke="rgb(255,255,128)" paint-order="fill stroke markers" d=" M 135.53511268220004 80.75757000250002 L -314.23799978850013 -2421.813304092266" stroke-miterlimit="10" stroke-dasharray=""/><path fill="none" stroke="rgb(255,255,128)" paint-order="fill stroke markers" d=" M 135.53511268220004 80.75757000250002 L -607.0680782310365 -2351.0519072005363" stroke-miterlimit="10" stroke-dasharray=""/><path fill="none" stroke="rgb(255,255,128)" paint-order="fill stroke markers" d=" M 135.53511268220004 80.75757000250002 L -889.4736356794048 -2246.1532358409904" stroke-miterlimit="10" stroke-dasharray=""/><path fill="none" stroke="rgb(255,255,128)" paint-order="fill stroke markers" d=" M 135.53511268220004 80.75757000250002 L -1157.490317147633 -2108.5898374188073" stroke-miterlimit="10" stroke-dasharray=""/><path fill="none" stroke="rgb(255,255,128)" paint-order="fill stroke markers" d=" M 135.53511268220004 80.75757000250002 L -1407.3557559277835 -1940.292800505112" stroke-miterlimit="10" stroke-dasharray=""/><path fill="none" stroke="rgb(255,255,128)" paint-order="fill stroke markers" d=" M 135.53511268220004 80.75757000250002 L -1635.5623889711046 -1743.6246465865695" stroke-miterlimit="10" stroke-dasharray=""/><path fill="none" stroke="rgb(255,255,128)" paint-order="fill stroke markers" d=" M 135.53511268220004 80.75757000250002 L -1838.9066953848485 -1521.3461654422276" stroke-miterlimit="10" stroke-dasharray=""/><path fill="none" stroke="rgb(255,255,128)" paint-order="fill stroke markers" d=" M 135.53511268220004 80.75757000250002 L -2014.534166843128 -1276.5776597069707" stroke-miterlimit="10" stroke-dasharray=""/><path fill="none" stroke="rgb(255,255,128)" paint-order="fill stroke markers" d=" M 135.53511268220004 80.75757000250002 L -2159.9793786268833 -1012.7551426620689" stroke-miterlimit="10" stroke-dasharray=""/><path fill="none" stroke="rgb(255,255,128)" paint-order="fill stroke markers" d=" M 135.53511268220004 80.75757000250002 L -2273.200598782463 -733.582104140819" stroke-miterlimit="10" stroke-dasharray=""/><path fill="none" stroke="rgb(255,255,128)" paint-order="fill stroke markers" d=" M 135.53511268220004 80.75757000250002 L -2352.6084495628843 -442.9775216491534" stroke-miterlimit="10" stroke-dasharray=""/><path fill="none" stroke="rgb(255,255,128)" paint-order="fill stroke markers" d=" M 135.53511268220004 80.75757000250002 L -2397.088218807334 -145.02084651218146" stroke-miterlimit="10" stroke-dasharray=""/><path fill="none" stroke="rgb(255,255,128)" paint-order="fill stroke markers" d=" M 135.53511268220004 80.75757000250002 L -2406.015508056478 156.10526268026518" stroke-miterlimit="10" stroke-dasharray=""/><path fill="none" stroke="rgb(255,255,128)" paint-order="fill stroke markers" d=" M 135.53511268220004 80.75757000250002 L -2379.2649977381197 456.1736554316829" stroke-miterlimit="10" stroke-dasharray=""/><path fill="none" stroke="rgb(255,255,128)" paint-order="fill stroke markers" d=" M 135.53511268220004 80.75757000250002 L -2317.212206379288 750.9720292658801" stroke-miterlimit="10" stroke-dasharray=""/><path fill="none" stroke="rgb(255,255,128)" paint-order="fill stroke markers" d=" M 135.53511268220004 80.75757000250002 L -2220.728219149261 1036.362061220246" stroke-miterlimit="10" stroke-dasharray=""/><path fill="none" stroke="rgb(255,255,128)" paint-order="fill stroke markers" d=" M 135.53511268220004 80.75757000250002 L -2091.167459733244 1308.337500828785" stroke-miterlimit="10" stroke-dasharray=""/><path fill="none" stroke="rgb(255,255,128)" paint-order="fill stroke markers" d=" M 135.53511268220004 80.75757000250002 L -1930.3486771927503 1563.0804090969182" stroke-miterlimit="10" stroke-dasharray=""/><path fill="none" stroke="rgb(255,255,128)" paint-order="fill stroke markers" d=" M 135.53511268220004 80.75757000250002 L -1740.5294147155269 1797.014753995904" stroke-miterlimit="10" stroke-dasharray=""/><path fill="none" stroke="rgb(255,255,128)" paint-order="fill stroke markers" d=" M 135.53511268220004 80.75757000250002 L -1524.374318657813 2006.8566101137553" stroke-miterlimit="10" stroke-dasharray=""/><path fill="none" stroke="rgb(255,255,128)" paint-order="fill stroke markers" d=" M 135.53511268220004 80.75757000250002 L -1284.917732750412 2189.660257769629" stroke-miterlimit="10" stroke-dasharray=""/><path fill="none" stroke="rgb(255,255,128)" paint-order="fill stroke markers" d=" M 135.53511268220004 80.75757000250002 L -1025.5211025641963 2342.859534460941" stroke-miterlimit="10" stroke-dasharray=""/><path fill="none" stroke="rgb(255,255,128)" paint-order="fill stroke markers" d=" M 135.53511268220004 80.75757000250002 L -749.8257881825314 2464.3038581599203" stroke-miterlimit="10" stroke-dasharray=""/><path fill="none" stroke="rgb(255,255,128)" paint-order="fill stroke markers" d=" M 135.53511268220004 80.75757000250002 L -461.7019474876955 2552.2884167710863" stroke-miterlimit="10" stroke-dasharray=""/><path fill="none" stroke="rgb(255,255,128)" paint-order="fill stroke markers" d=" M 135.53511268220004 80.75757000250002 L -165.19420762791705 2605.578099956033" stroke-miterlimit="10" stroke-dasharray=""/><path fill="none" stroke="rgb(255,255,128)" paint-order="fill stroke markers" d=" M 206.17323706122352 109.40551779164879 L 383.90236204122795 49.26483411039257" stroke-miterlimit="10" stroke-dasharray=""/><path fill="none" stroke="rgb(255,255,128)" paint-order="fill stroke markers" d=" M 206.1033479461876 100.0403763768329 L 387.13454100430647 57.170569141706395" stroke-miterlimit="10" stroke-dasharray=""/><path fill="none" stroke="rgb(255,255,128)" paint-order="fill stroke markers" d=" M 206.03799012309142 91.28242808194734 L 390.3818260549594 65.11325284668172" stroke-miterlimit="10" stroke-dasharray=""/><path fill="none" stroke="rgb(255,255,128)" paint-order="fill stroke markers" d=" M 205.97503063204698 82.8458562819955 L 393.7384519144658 73.3233782597988" stroke-miterlimit="10" stroke-dasharray=""/><path fill="none" stroke="rgb(255,255,128)" paint-order="fill stroke markers" d=" M 205.91262537915884 74.48355239498792 L 397.31171707328207 82.06339168879524" stroke-miterlimit="10" stroke-dasharray=""/><path fill="none" stroke="rgb(255,255,128)" paint-order="fill stroke markers" d=" M 205.84899467768358 65.95703839729772 L 401.23676731613887 91.66385241794502" stroke-miterlimit="10" stroke-dasharray=""/><path fill="none" stroke="rgb(255,255,128)" paint-order="fill stroke markers" d=" M 205.78221525424425 57.008595656431794 L 405.6995618334731 102.57960657520843" stroke-miterlimit="10" stroke-dasharray=""/><path fill="none" stroke="rgb(255,255,128)" paint-order="fill stroke markers" d=" M 205.70997511815833 47.328417420916594 L 410.9772490316464 115.48854418155126" stroke-miterlimit="10" stroke-dasharray=""/><path fill="none" stroke="rgb(255,255,128)" paint-order="fill stroke markers" d=" M 383.90236204122795 49.26483411039257 L -2101.0175261589843 1249.3664920656922" stroke-miterlimit="10" stroke-dasharray=""/><path fill="none" stroke="rgb(255,255,128)" paint-order="fill stroke markers" d=" M 387.13454100430647 57.170569141706395 L -1984.0409400451854 1490.4161201327854" stroke-miterlimit="10" stroke-dasharray=""/><path fill="none" stroke="rgb(255,255,128)" paint-order="fill stroke markers" d=" M 390.3818260549594 65.11325284668172 L -1848.9077073631872 1715.6832182600829" stroke-miterlimit="10" stroke-dasharray=""/><path fill="none" stroke="rgb(255,255,128)" paint-order="fill stroke markers" d=" M 393.7384519144658 73.3233782597988 L -1696.1552632090265 1926.8689707301828" stroke-miterlimit="10" stroke-dasharray=""/><path fill="none" stroke="rgb(255,255,128)" paint-order="fill stroke markers" d=" M 397.31171707328207 82.06339168879524 L -1525.452269509573 2125.3964517149197" stroke-miterlimit="10" stroke-dasharray=""/><path fill="none" stroke="rgb(255,255,128)" paint-order="fill stroke markers" d=" M 401.23676731613887 91.66385241794502 L -1335.697893145515 2312.332819994306" stroke-miterlimit="10" stroke-dasharray=""/><path fill="none" stroke="rgb(255,255,128)" paint-order="fill stroke markers" d=" M 405.6995618334731 102.57960657520843 L -1125.0904400207228 2488.359116540213" stroke-miterlimit="10" stroke-dasharray=""/><path fill="none" stroke="rgb(255,255,128)" paint-order="fill stroke markers" d=" M 410.9772490316464 115.48854418155126 L -891.1710640218068 2653.816338733709" stroke-miterlimit="10" stroke-dasharray=""/><rect fill="rgb(0,255,0)" stroke="none" x="133.53511268220004" y="78.75757000250002" width="5" height="5"/><path fill="none" stroke="rgb(128,128,128)" paint-order="fill stroke markers" d=" M 205.68532468220002 44.02525900250002 L 206.21676568220002 115.23835300250002" stroke-miterlimit="10" stroke-width="4" stroke-opacity="0.7142857142857143" stroke-dasharray=""/><path fill="none" stroke="rgb(255,255,255)" paint-order="fill stroke markers" d=" M 203.95110087156473 79.64673096004206 L 207.95098949283528 79.61688104495796" stroke-miterlimit="10" stroke-dasharray=""/><path fill="rgb(255,0,0)" stroke="none" paint-order="stroke fill markers" d=" M 205.6480122883449 39.02539822591186 L 210.7224978526433 48.98780738523305 L 200.722776299467 49.062432172943325"/><path fill="rgb(255,0,0)" stroke="none" paint-order="stroke fill markers" d=" M 206.25407807605515 120.23821377908818 L 211.17931406493307 110.20117983205672 L 201.1795925117567 110.27580461976699"/><path fill="none" stroke="rgb(168,168,168)" paint-order="fill stroke markers" d=" M 377.74644468220004 34.207793002500026 L 417.07307868220005 130.3986140025" stroke-miterlimit="10" stroke-dasharray=""/></g></svg>

<svg xmlns="http://www.w3.org/2000/svg" width="519" height="163"><path d="M0 0h519v163H0z"/><path fill="#0F0" d="M133.535 78.758h5v5h-5z"/><path fill="none" stroke="gray" paint-order="fill stroke markers" d="m205.685 44.025.532 71.213" stroke-miterlimit="10" stroke-width="4" stroke-opacity=".714"/><path fill="none" stroke="#FFF" paint-order="fill stroke markers" d="m203.951 79.647 4-.03" stroke-miterlimit="10"/><path fill="red" paint-order="stroke fill markers" d="m205.648 39.025 5.074 9.963-10 .074M206.254 120.238l4.925-10.037-10 .075"/><path fill="none" stroke="#A8A8A8" paint-order="fill stroke markers" d="m377.746 34.208 39.327 96.19" stroke-miterlimit="10"/><path fill="none" stroke="#FFFF80" paint-order="fill stroke markers" d="M135.535 80.758v2542.667M135.535 80.758l300.73 2524.82M135.535 80.758l597.237 2471.53M135.535 80.758l885.361 2383.546M135.535 80.758 1296.591 2342.86M135.535 80.758 1555.988 2189.66M135.535 80.758l1659.91 1926.099M135.535 80.758 2011.6 1797.015M135.535 80.758 2201.42 1563.08M135.535 80.758l2226.703 1227.58M135.535 80.758l70.638 28.648M135.535 80.758l70.568 19.282M135.535 80.758l70.503 10.524M135.535 80.758l70.44 2.088M135.535 80.758l70.378-6.274M135.535 80.758l70.314-14.801M135.535 80.758l70.247-23.75M135.535 80.758l70.175-33.43M135.535 80.758l2150.07-1357.336M135.535 80.758l1974.442-1602.104M135.535 80.758l1771.098-1824.383M135.535 80.758l1542.891-2021.05M135.535 80.758 1428.561-2108.59M135.535 80.758l1025.009-2326.911M135.535 80.758l742.603-2431.81M135.535 80.758l449.773-2502.571M135.535 80.758l150.63-2538.202M135.535 80.758l-150.63-2538.202M135.535 80.758l-449.773-2502.571M135.535 80.758l-742.603-2431.81M135.535 80.758-889.474-2246.153M135.535 80.758-1157.49-2108.59M135.535 80.758l-1542.89-2021.05M135.535 80.758l-1771.097-1824.383M135.535 80.758l-1974.442-1602.104M135.535 80.758l-2150.07-1357.336M135.535 80.758l-2295.514-1093.513M135.535 80.758-2273.2-733.582M135.535 80.758l-2488.143-523.736M135.535 80.758l-2532.623-225.779M135.535 80.758l-2541.55 75.347M135.535 80.758l-2514.8 375.416M135.535 80.758l-2452.747 670.214M135.535 80.758l-2356.263 955.604M135.535 80.758l-2226.702 1227.58M135.535 80.758-1930.349 1563.08M135.535 80.758l-1876.064 1716.257M135.535 80.758l-1659.91 1926.099M135.535 80.758-1284.918 2189.66M135.535 80.758-1025.52 2342.86M135.535 80.758l-885.36 2383.546M135.535 80.758l-597.237 2471.53M135.535 80.758l-300.73 2524.82M206.173 109.406l177.73-60.141M206.103 100.04l181.032-42.87M206.038 91.282l184.344-26.169M205.975 82.846l187.763-9.523M205.913 74.484l191.399 7.58M205.849 65.957l195.388 25.707M205.782 57.009l199.918 45.57M205.71 47.328l205.267 68.16M383.902 49.265l-2484.92 1200.101M387.135 57.17l-2371.176 1433.246M390.382 65.113l-2239.29 1650.57M393.738 73.323-1696.155 1926.87M397.312 82.063l-1922.764 2043.333M401.237 91.664l-1736.935 2220.669M405.7 102.58l-1530.79 2385.78M410.977 115.489-891.17 2653.816" stroke-miterlimit="10"/><path fill="#0F0" d="M133.535 78.758h5v5h-5z"/><path fill="none" stroke="gray" paint-order="fill stroke markers" d="m205.685 44.025.532 71.213" stroke-miterlimit="10" stroke-width="4" stroke-opacity=".714"/><path fill="none" stroke="#FFF" paint-order="fill stroke markers" d="m203.951 79.647 4-.03" stroke-miterlimit="10"/><path fill="red" paint-order="stroke fill markers" d="m205.648 39.025 5.074 9.963-10 .074M206.254 120.238l4.925-10.037-10 .075"/><path fill="none" stroke="#A8A8A8" paint-order="fill stroke markers" d="m377.746 34.208 39.327 96.19" stroke-miterlimit="10"/></svg>
